X:1
T:My ladye's coach - parsons - bickle
T:Taken down from Jas. Parsons by S.B.G. to another ballad. 
T:But same air as that sung by Anne Bickle.
%%VWML:SBG-1-1-153-0
F:http://www.vwml.org/record/SBG/1/1/153
Z:Original Sibleius Transcription by Martin and Shan Graebe
M:4/4
L:1/8
K:Bm
F2 | F2 F2 GF E2 | D2 E2 F2 F2 | B2 B2 c2 d2 | B4z2 c2 | d2 c2 B2 A2 |
F2 B2 A2 F2 | B2>c2 d2 c2 | d4z2 F2 | F2 F2 F2 F2 |G2 A2 B2 c2 |
 d2 c2 B2 B2 | A4z2 A2 | d2 A2 A2 B2 |d2 B2 B2 e2 | d2 c2 B2 A2 | B8 ||
T:My ladye's coach - hoskins
T:Taken down at Sth. Brent from J. Hoskins by H.Fl.S. Oct. 1888
M:4/4
L:1/8
K:Ddor
FG | A2 A2 A2 E2 | F2 G2 D2 d2 | c2>A2 F2 D2 | A6 A=B | c2 c2 B2 A2 |d2 B2 G2 AB |
 c2 A2 G2 E2 | F6 Bc | d2 B2 B2 A2 |B2 G2 D2 EF | G2 G2 F2 D2 |
 C6 AB | c2 G2 G2 FG |A2 E2 F2 G2 | A2 D2 D2 C2 | D4 ||



